X: 9
T: Ja ilman kuuta ja aurinkoa
O: Suomalainen kansanlaulu
M: C
L: 1/8
K: Am
"E7"E2 \
| "Am"A2 AG "F"A2 BB | "G7"G2 GF "C"E2 CE | "Em"G2 GG "Dm"AA "G7"F2 | "C"E4 "E7"z2 :|
|: CD \
| "Am"E2 E2 "E7"E2 CB, | "Am"A,2 c2 "Dm7"Hc2 "^Intro"BB | "Am"E2 AA "E7"BB ^G2 | "Am"A4 z2 :|
%%sep 1 1 10cm
